**kern	**kern	**dynam
*part1	*part1	*part1
*staff2	*staff1	*
*I"Piano	*	*
*clefF4	*clefG2	*
*k[b-]	*k[b-]	*
=1	=1	=1
*^	*	*
!	!	!	!LO:DY:a
8rF	2D	8r	mf
8FL 8A 8d	.	8fL 8a 8dd	.
8F 8A 8e	.	8f^ 8a 8ee	.
8FJ 8A 8d	.	8fJ 8a 8dd	.
=	=	=	=
8rF	2D	8r	.
8GL 8B- 8e	.	8gL 8b- 8ee	.
8G 8B- 8f	.	8g^ 8b- 8ff	.
8GJ 8B- 8e	.	8gJ 8b- 8ee	.
=	=	=	=
8rF	2C#X	8r	.
8GL 8A 8e	.	8gL 8a 8ee	.
8G 8A 8f	.	8g^ 8a 8ff	.
8GJ 8A 8e	.	8gJ 8a 8ee	.
=	=	=	=
8rF	2Cn	8r	.
8F#XL 8A 8d	.	8f#XL 8a 8dd	.
8F# 8A 8e-X	.	8f#^ 8a 8ee-X	.
8F#J 8A 8d	.	8f#J 8a 8dd	.
=	=	=	=
8rF	2BBn	8r	.
8GL 8Bn 8f	.	8gL 8ffn	.
8G 8B 8f	.	8g 8een	.
8GJ 8B 8f	.	8gJ 8dd#X	.
=	=	=	=
!	!	!	!LO:DY:a
8rF	2C	8r	<
8GL 8c 8e	.	8gL 8ee	.
8G 8c 8e	.	8g 8ddn	.
8GJ 8c 8e	.	8gJ 8cc	.
=	=	=	=
8rF	2GG 2G	8r	[
8GL 8B- 8f	.	8a-XL 8bn 8dd 8aa-X	.
8G 8B- 8f	.	8g 8b 8dd 8gg	.
8GJ 8B- 8f	.	8gJ 8b 8dd 8ff	.
=	=	=	=
!	!	!	!LO:DY:a
8rF	2C	8g^L 8cc 8ff	>
8EL 8G 8c	.	8g 8cc 8ee	.
8E 8G 8c	.	8e 8g 8dd	.
8EJ 8G 8c	.	8eJ 8g 8cc	.
*v	*v	*	*
=	=	=
*-	*-	*-
!!!system-decoration: {(s1,s2)}
